svgs/duotone/chalkboard.svg

<svg xmlns="http://www.w3.org/2000/svg" viewBox="0 0 576 512"><!--! Font Awesome Pro 6.6.0 by @fontawesome - https://fontawesome.com License - https://fontawesome.com/license (Commercial License) Copyright 2024 Fonticons, Inc. --><defs><style>.fa-secondary{opacity:.4}</style></defs><path class="fa-secondary" d="M0 448c0 17.7 14.3 32 32 32l512 0c17.7 0 32-14.3 32-32s-14.3-32-32-32l0-320c0-35.3-28.7-64-64-64L96 32C60.7 32 32 60.7 32 96l0 320c-17.7 0-32 14.3-32 32zM96 96l384 0 0 320-64 0-192 0L96 416 96 96z"/><path class="fa-primary" d="M480 96L96 96l0 320 128 0 0-32c0-17.7 14.3-32 32-32l128 0c17.7 0 32 14.3 32 32l0 32 64 0 0-320z"/></svg>

<svg xmlns="http://www.w3.org/2000/svg" viewBox="0 0 576 512"><!--! Font Awesome Pro 6.5.2 by @fontawesome - https://fontawesome.com License - https://fontawesome.com/license (Commercial License) Copyright 2024 Fonticons, Inc. --><defs><style>.fa-secondary{opacity:.4}</style></defs><path class="fa-secondary" d="M96 32C60.7 32 32 60.7 32 96V416c-17.7 0-32 14.3-32 32s14.3 32 32 32H544c17.7 0 32-14.3 32-32s-14.3-32-32-32V96c0-35.3-28.7-64-64-64H96zM480 416H96V96l384 0V416z"/><path class="fa-primary" d="M480 96H96V416H224V384c0-17.7 14.3-32 32-32H384c17.7 0 32 14.3 32 32v32h64V96z"/></svg>
